icons/fill-ele-office-data-marketing.svg

<svg xmlns="http://www.w3.org/2000/svg" width="32px" height="32px" viewBox="0 0 32 32" version="1.1">
    <title>fill-ele-office-data-marketing</title>
    <g id="fill-ele-office-data-marketing" stroke-width="1" fill-rule="evenodd">
        <path d="M28,3 C28.5522847,3 29,3.44771525 29,4 L29,28 C29,28.5522847 28.5522847,29 28,29 L4,29 C3.44771525,29 3,28.5522847 3,28 L3,4 C3,3.44771525 3.44771525,3 4,3 L28,3 Z M13.7071068,14.2928932 C13.3165825,13.9023689 12.6834175,13.9023689 12.2928932,14.2928932 L8.29289322,18.2928932 C7.90236893,18.6834175 7.90236893,19.3165825 8.29289322,19.7071068 L8.38710056,19.7902954 C8.77939176,20.0953203 9.34662282,20.0675907 9.70710678,19.7071068 L13,16.415 L16.2928932,19.7071068 C16.6834175,20.0976311 17.3165825,20.0976311 17.7071068,19.7071068 L20.7071068,16.7071068 C21.0976311,16.3165825 21.0976311,15.6834175 20.7071068,15.2928932 L20.6128994,15.2097046 C20.2206082,14.9046797 19.6533772,14.9324093 19.2928932,15.2928932 L16.999,17.585 L13.7071068,14.2928932 Z M22.5,12 C21.6715729,12 21,12.6715729 21,13.5 C21,14.3284271 21.6715729,15 22.5,15 C23.3284271,15 24,14.3284271 24,13.5 C24,12.6715729 23.3284271,12 22.5,12 Z" id="&#24418;&#29366;" />
    </g>
</svg>

<svg xmlns="http://www.w3.org/2000/svg" viewBox="0 0 32 32"><path fill="currentColor" d="M28 3a1 1 0 0 1 1 1v24a1 1 0 0 1-1 1H4a1 1 0 0 1-1-1V4a1 1 0 0 1 1-1zM13.707 14.293a1 1 0 0 0-1.414 0l-4 4a1 1 0 0 0 0 1.414l.094.083a1 1 0 0 0 1.32-.083L13 16.415l3.293 3.292a1 1 0 0 0 1.414 0l3-3a1 1 0 0 0 0-1.414l-.094-.083a1 1 0 0 0-1.32.083l-2.294 2.292zM22.5 12a1.5 1.5 0 1 0 0 3 1.5 1.5 0 0 0 0-3"/></svg>
